data/tiles/ant-s.svg

<?xml version="1.0" encoding="UTF-8" standalone="no"?>
<!-- Created with Inkscape (http://www.inkscape.org/) -->
<svg
   xmlns:svg="http://www.w3.org/2000/svg"
   xmlns="http://www.w3.org/2000/svg"
   version="1.0"
   width="32"
   height="32"
   id="svg2">
  <defs
     id="defs4" />
  <g
     transform="matrix(0,1,-1,0,32,-0.6785718)"
     id="layer1">
    <path
       d="M 27.053571,13.741072 C 27.05439,17.070209 24.595714,19.769485 21.5625,19.769485 C 18.529286,19.769485 16.07061,17.070209 16.071429,13.741072 C 16.07061,10.411935 18.529286,7.7126595 21.5625,7.7126595 C 24.595714,7.7126595 27.05439,10.411935 27.053571,13.741072 L 27.053571,13.741072 z"
       transform="translate(-11.78571,2.589285)"
       id="path2782"
       style="fill:#808080;fill-opacity:1;stroke:#000000;stroke-linejoin:bevel;stroke-opacity:1" />
    <path
       d="M 24.017859,6.642857 L 20.267857,9.3214286 L 18.571429,13.25"
       id="path2792"
       style="fill:none;fill-rule:evenodd;stroke:#000000;stroke-width:1px;stroke-linecap:butt;stroke-linejoin:bevel;stroke-opacity:1" />
    <path
       d="M 32.053572,16.508928 C 32.053572,18.55534 30.37464,20.214285 28.303572,20.214285 C 26.232504,20.214285 24.553572,18.55534 24.553572,16.508928 C 24.553572,14.462516 26.232504,12.803571 28.303572,12.803571 C 30.37464,12.803571 32.053572,14.462516 32.053572,16.508928 L 32.053572,16.508928 z"
       transform="translate(-11.78571,-0.178571)"
       id="path2784"
       style="fill:#808080;fill-opacity:1;stroke:#000000;stroke-linejoin:bevel;stroke-opacity:1" />
    <path
       d="M 28.660714,17 C 28.661209,19.317989 26.862208,21.197365 24.642857,21.197365 C 22.423506,21.197365 20.624505,19.317989 20.625,17 C 20.624505,14.682011 22.423506,12.802635 24.642857,12.802635 C 26.862208,12.802635 28.661209,14.682011 28.660714,17 z"
       transform="translate(-1.428571,-0.803571)"
       id="path2786"
       style="fill:#808080;fill-opacity:1;stroke:#000000;stroke-linejoin:bevel;stroke-opacity:1" />
    <path
       d="M 4.2857143,1.9107139 L 10.267857,7.625 L 10.714286,10.214286"
       id="path2788"
       style="fill:none;fill-rule:evenodd;stroke:#000000;stroke-width:1px;stroke-linecap:butt;stroke-linejoin:bevel;stroke-opacity:1" />
    <path
       d="M 18.392857,5.5714287 L 15.803572,7.9821429 L 15.089286,12.535714"
       id="path2790"
       style="fill:none;fill-rule:evenodd;stroke:#000000;stroke-width:1px;stroke-linecap:butt;stroke-linejoin:bevel;stroke-opacity:1" />
    <path
       d="M 10.625,22.178571 L 10.357143,25.392858 L 3.8392857,29.410714"
       id="path2794"
       style="fill:none;fill-rule:evenodd;stroke:#000000;stroke-width:1px;stroke-linecap:butt;stroke-linejoin:bevel;stroke-opacity:1" />
    <path
       d="M 14.285715,19.767857 L 14.285714,24.589286 L 16.964285,27.982143"
       id="path2796"
       style="fill:none;fill-rule:evenodd;stroke:#000000;stroke-width:1px;stroke-linecap:butt;stroke-linejoin:bevel;stroke-opacity:1" />
    <path
       d="M 18.035715,20.125 L 19.285714,25.571428 L 22.589285,27.178571"
       id="path2798"
       style="fill:none;fill-rule:evenodd;stroke:#000000;stroke-width:1px;stroke-linecap:butt;stroke-linejoin:bevel;stroke-opacity:1" />
    <path
       d="M 24.464285,13.964286 L 26.696428,11.732143"
       id="path2800"
       style="fill:none;fill-rule:evenodd;stroke:#000000;stroke-width:1px;stroke-linecap:butt;stroke-linejoin:bevel;stroke-opacity:1" />
    <path
       d="M 24.732142,18.428573 L 26.696428,20.660716"
       id="path2802"
       style="fill:none;fill-rule:evenodd;stroke:#000000;stroke-width:1px;stroke-linecap:butt;stroke-linejoin:bevel;stroke-opacity:1" />
    <path
       d="M 27.142857,15.660714 L 28.839286,15.839284"
       id="path3689"
       style="fill:none;fill-rule:evenodd;stroke:#000000;stroke-width:1px;stroke-linecap:butt;stroke-linejoin:miter;stroke-opacity:1" />
    <path
       d="M 28.571428,16.821429 L 27.321429,17.178572"
       id="path3691"
       style="fill:none;fill-rule:evenodd;stroke:#000000;stroke-width:1px;stroke-linecap:butt;stroke-linejoin:miter;stroke-opacity:1" />
  </g>
</svg>

<?xml version="1.0" encoding="UTF-8" standalone="no"?>
<!-- Created with Inkscape (http://www.inkscape.org/) -->
<svg id="svg2" xmlns="http://www.w3.org/2000/svg" height="32" width="32" version="1.0">
 <g id="layer1" stroke="#000" stroke-width="1px" stroke-linejoin="bevel" stroke-linecap="butt" fill="none" transform="matrix(0,1,-1,0,32,0)">
  <path id="path1" d="M27.054,13.741c0,3.329-2.458,6.028-5.492,6.028-3.033,0-5.491-2.699-5.491-6.028s2.458-6.0283,5.491-6.0283c3.034,0,5.492,2.6993,5.492,6.0283z" transform="translate(-11.78571,2.589285)" fill="#808080"/>
  <path id="path2" d="M24.018,6.6429l-3.75,2.6785-1.697,3.9286"/>
  <path id="path3" d="M32.054,16.509c0,2.046-1.679,3.705-3.75,3.705s-3.75-1.659-3.75-3.705,1.679-3.705,3.75-3.705,3.75,1.659,3.75,3.705z" transform="translate(-11.78571,-0.178571)" fill="#808080"/>
  <path id="path4" d="M28.661,17c0,2.318-1.799,4.197-4.018,4.197s-4.018-1.879-4.018-4.197,1.799-4.197,4.018-4.197,4.018,1.879,4.018,4.197z" transform="translate(-1.428571,-0.803571)" fill="#808080"/>
  <path id="path5" d="M4.2857,1.9107l5.9823,5.7143,0.446,2.589"/>
  <path id="path6" d="M18.393,5.5714l-2.589,2.4107-0.715,4.5539"/>
  <path id="path7" d="M10.625,22.179l-0.268,3.214-6.5177,4.018"/>
  <path id="path8" d="M14.286,19.768v4.821l2.678,3.393"/>
  <path id="path9" d="M18.036,20.125l1.25,5.446,3.303,1.608"/>
  <path id="path10" d="M24.464,13.964l2.232-2.232"/>
  <path id="path11" d="M24.732,18.429l1.964,2.232"/>
  <path id="path12" stroke-linejoin="miter" d="M27.143,15.661l1.696,0.178"/>
  <path id="path13" stroke-linejoin="miter" d="M28.571,16.821l-1.25,0.358"/>
 </g>
</svg>
